assets/Light rail/Flat/light_rail_flat.svg

<svg width="32" height="32" viewBox="0 0 32 32" fill="none" xmlns="http://www.w3.org/2000/svg">
<path d="M26 8L30 9V27H8.78076C8.32189 27 7.92191 26.6877 7.81061 26.2425L7.48249 24.93C7.17263 23.6906 7.34898 22.3796 7.97533 21.2661L9.81248 18L14.5 13.5C15.9169 10.981 23.1098 8 26 8Z" fill="#F4F4F4"/>
<path d="M2 27H30V30H2V27Z" fill="#433B6B"/>
<path d="M8.78076 27H30V23H7.38493C7.29245 23.6379 7.32334 24.2934 7.48249 24.93L7.81061 26.2425C7.92191 26.6877 8.32189 27 8.78076 27Z" fill="#F9C23C"/>
<path d="M9.8125 18H14.3241C15.9958 18 17.557 17.1645 18.4843 15.7735L21.5157 11.2265C22.443 9.83551 24.0042 9 25.6759 9H30V7H20.6788C18.7 7 16.8266 7.73072 15.3871 9C15.5 10 15.4468 11.7056 15 12.5L10.9375 16L9.8125 18Z" fill="#46A4FB"/>
<path d="M13.7062 11.0779C14.153 10.2835 14.724 9.58464 15.3871 9H18.0568C18.8702 9 19.3433 9.91937 18.8705 10.5812L16.4956 13.9062C15.557 15.2202 14.0417 16 12.4269 16H10.9375L13.7062 11.0779Z" fill="#26C9FC"/>
<path d="M30 11H26.3213C24.8859 11 23.5605 11.7691 22.8483 13.0154L21.7099 15.0077C20.948 16.341 21.9107 18 23.4464 18H30V11Z" fill="#26C9FC"/>
<path d="M10 21C10 20.4477 10.4477 20 11 20H13C13.5523 20 14 20.4477 14 21V21C14 21.5523 13.5523 22 13 22H11C10.4477 22 10 21.5523 10 21V21Z" fill="#F92F60"/>
<path d="M21 21C21 20.4477 21.4477 20 22 20H30V22H22C21.4477 22 21 21.5523 21 21V21Z" fill="#E6E6E6"/>
</svg>

<svg xmlns="http://www.w3.org/2000/svg" width="32" height="32" fill="none"><path fill="#F4F4F4" d="m26 8 4 1v18H8.78a1 1 0 0 1-.97-.758l-.328-1.312a5 5 0 0 1 .493-3.664L9.812 18l4.688-4.5C15.917 10.981 23.11 8 26 8Z"/><path fill="#433B6B" d="M2 27h28v3H2v-3Z"/><path fill="#F9C23C" d="M8.78 27H30v-4H7.385a4.999 4.999 0 0 0 .097 1.93l.329 1.313a1 1 0 0 0 .97.757Z"/><path fill="#46A4FB" d="M9.813 18h4.511a5 5 0 0 0 4.16-2.226l3.032-4.547A5 5 0 0 1 25.676 9H30V7h-9.321a8 8 0 0 0-5.292 2c.113 1 .06 2.706-.387 3.5L10.937 16l-1.124 2Z"/><path fill="#26C9FC" d="M13.706 11.078A7.99 7.99 0 0 1 15.387 9h2.67a1 1 0 0 1 .814 1.581l-2.375 3.325A5 5 0 0 1 12.426 16h-1.489l2.77-4.922ZM30 11h-3.679a4 4 0 0 0-3.473 2.015l-1.138 1.993c-.762 1.333.2 2.992 1.736 2.992H30v-7Z"/><path fill="#F92F60" d="M10 21a1 1 0 0 1 1-1h2a1 1 0 1 1 0 2h-2a1 1 0 0 1-1-1Z"/><path fill="#E6E6E6" d="M21 21a1 1 0 0 1 1-1h8v2h-8a1 1 0 0 1-1-1Z"/></svg>
